!!!OTL@@FUR: Vince rumeno
!!!OTL@IT: Il vino bianco
!!!OTL@EN: Pure white wine
**kern
*clefG2
*k[]
*C:
*M3/4
*MM120
*>[A,A]
=1
*>A
4e
4d
4e
=2
4a
2g
=3
4e
4d
4e
=4
4g
2f
=5
4g
4g
4a
=6
8b
8cc
2b
=7
4a
4g
4f
=8
2.e
=9
8cc
8cc
8cc
8cc
8cc
8cc
=10
8b
8b
8b
8b
8b
8b
=11
8dd
8dd
8b
8b
8a
8a
=12
4a
2g
=13
4cc
4e
4a
=14
4g
2b
=15
4a
4g
4f
=16
2.e
==:|!
*-
!!!ARE: Friuli
!!!ENC: Kelly Leistikow
!!!END: 2002/03/07
!!!ref: @{OTL@@FUR}/@{OTL@EN}
